Adwaita++-Dark/actions/22/tools-check-spelling.svg

<svg height="22" viewBox="0 0 22 22" width="22" xmlns="http://www.w3.org/2000/svg">
  <path d="m8 2v9.023438h3.001953c.93855 0 1.768828-.372535 2.298828-.958985.53-.5864399.76574-1.3366061.75586-2.0664061-.01-.72982-.262223-1.4657688-.789063-2.0429688-.53-.577-1.349531-.9550781-2.269531-.9550781h-1.0019532v-3zm-5.9941406 1-.0078125 2 2.921875.0117188h.0019531c-.0552 0 .0839844.1593812.0839844.0820312v.9238281h-1.0039063c-1.7159 0-3.03008747 1.125475-3.05468748 2.484375-.01229999.67945.30582818 1.3629657.86132818 1.8222659.5555.45927 1.3153593.699219 2.1933593.699219h3.0039063v-5.929688c0-1.1712-.8871344-2.0820312-2.0839844-2.0820312zm7.9941406 4h1.001953c.42179 0 .625509.1256944.787109.3027344.161601.17705.263839.4468462.267579.7226562.004.27581-.088595.5294856-.240235.6972656-.15162.1677701-.355693.3007813-.814453.3007813h-1.001953zm-5.9980469 1.0175781h1.0039063v1.0058594h-1.0039063c-.51941 0-.7937918-.1359444-.9199219-.2402344-.1261399-.10428-.1360656-.1741337-.1347656-.2460937.003-.14393.0848875-.5195313 1.0546875-.5195313zm-1 3.2753909-2.3535156 2.353515a.50005.50005 0 1 0 .7070313.707032l1.6464843-1.646485 2 2 2-2 2 2 1.9999999-2 2 2 2.353516-2.353515a.50005.50005 0 1 0 -.707031-.707032l-1.646485 1.646485-2-2-1.9999999 2-2-2-2 2z" fill="#e6ddff" transform="translate(3 3)"/>
</svg>

<svg xmlns="http://www.w3.org/2000/svg" width="22" height="22" viewBox="0 0 22 22">
 <defs>
  <style id="current-color-scheme" type="text/css">
   .ColorScheme-Text { color:#E6DDFF; } .ColorScheme-Highlight { color:#4285f4; }
  </style>
 </defs>
 <path style="fill:currentColor" class="ColorScheme-Text" d="M 8 2 L 8 11.023438 L 11.001953 11.023438 C 11.940503 11.023438 12.770781 10.650903 13.300781 10.064453 C 13.830781 9.4780131 14.066521 8.7278469 14.056641 7.9980469 C 14.046641 7.2682269 13.794418 6.5322781 13.267578 5.9550781 C 12.737578 5.3780781 11.918047 5 10.998047 5 L 9.9960938 5 L 9.9960938 2 L 8 2 z M 2.0058594 3 L 1.9980469 5 L 4.9199219 5.0117188 L 4.921875 5.0117188 C 4.866675 5.0117188 5.0058594 5.1711 5.0058594 5.09375 L 5.0058594 6.0175781 L 4.0019531 6.0175781 C 2.2860531 6.0175781 0.97186563 7.1430531 0.94726562 8.5019531 C 0.93496563 9.1814031 1.2530938 9.8649188 1.8085938 10.324219 C 2.3640938 10.783489 3.1239531 11.023438 4.0019531 11.023438 L 7.0058594 11.023438 L 7.0058594 5.09375 C 7.0058594 3.92255 6.118725 3.0117188 4.921875 3.0117188 L 2.0058594 3 z M 10 7 L 11.001953 7 C 11.423743 7 11.627462 7.1256944 11.789062 7.3027344 C 11.950663 7.4797844 12.052901 7.7495806 12.056641 8.0253906 C 12.060641 8.3012006 11.968046 8.5548762 11.816406 8.7226562 C 11.664786 8.8904263 11.460713 9.0234375 11.001953 9.0234375 L 10 9.0234375 L 10 7 z M 4.0019531 8.0175781 L 5.0058594 8.0175781 L 5.0058594 9.0234375 L 4.0019531 9.0234375 C 3.4825431 9.0234375 3.2081613 8.8874931 3.0820312 8.7832031 C 2.9558913 8.6789231 2.9459656 8.6090694 2.9472656 8.5371094 C 2.9502656 8.3931794 3.0321531 8.0175781 4.0019531 8.0175781 z M 3.0019531 11.292969 L 0.6484375 13.646484 A 0.50005 0.50005 0 1 0 1.3554688 14.353516 L 3.0019531 12.707031 L 5.0019531 14.707031 L 7.0019531 12.707031 L 9.0019531 14.707031 L 11.001953 12.707031 L 13.001953 14.707031 L 15.355469 12.353516 A 0.50005 0.50005 0 1 0 14.648438 11.646484 L 13.001953 13.292969 L 11.001953 11.292969 L 9.0019531 13.292969 L 7.0019531 11.292969 L 5.0019531 13.292969 L 3.0019531 11.292969 z" transform="translate(3 3)"/>
</svg>
